X:2973
T:Halling efter Mats Berglund
S:Efter Ben Teitelbaum
Z:[[http://www.bluerose.karenlmyers.org/IncipitsHalling3.html|Karen Myers (#2973)]]
Z:Upptecknad 7/2008
M:2/4
L:1/16
R:Halling
N:Key is really pentatonic (D E F A C) for the A & B parts.
N:The C part is pentatonic (D E F# G# A) until it returns to the original key.
K:Dm
A,2C2 D2>(E2 | F2)(FD E2)(EC | A,2)A,C D2>(E2 | F2)(FD E2)(DC) |1 D4 D4 :|2 D6 E2 ||
|: F2(FE FA)(FD | E2)(ED E2)(DE | F2)(FE FA)(FD | E2)(ED E2)(DE | F2)(DF E2)DC |1 D6 E2 :|2 D8 ||
|: ^F2>(E2 DE)(F^G | A2)^GE (G2^F2) | ^F2>(E2 DE)(F^G | A2)^GE ^F4 |
^F2>(E2 DE)(F^G | A2)^GE (G2^F2) | A,2C2 D2>(E2 | F2)(FD E2)DC | D8 :|
